X:1
T:Ave Maria
T:Ave Maria
T:F.L.Luciani
C:F.L.Luciani
%%score [ 1 2 3 ] { ( 4 6 ) | ( 5 7 ) }
L:1/8
Q:1/4=96
M:2/2
K:Bb
V:1 treble nm="Soprano" snm="S"
V:2 treble nm="Alto" snm="A"
V:3 treble-8 nm="Tenore" snm="T"
V:4 treble nm="Organo" snm="Org."
V:6 treble 
V:5 treble 
V:7 treble 
V:1
"^Andante" z8[Q:1/2=54] | z8 | z8 | z8 | z8 |!p! B4 B2 B2 | A4 A4 | c4 c2 c2 | B4 B4 | d4 d2 d2 | %10
 (c4 A4) | B8- | B4 B2 c2 | d4 (c2 B2) | A2 A2 A2 B2 | c4 (B2 A2) | G2 G2 G2 A2 | B2 B2 A2 B2 | %18
 c2 B2 A2 G2 | F8 |"^rall." F8 |"^a tempo" B4 B2 B2 | A4 A4 | c4 c4 | B4 B4 | d4 d2 d2 | %26
 e2 d2 c2 B2 | B4 (A2 G2) | ^F8 | G4 G2 A2 | B2 B2 A2 G2 | F4 F4 | F8 | F8 |] %34
V:2
 z8 | z8 | z8 | z8 | z8 | %5
"^A   -  ve Ma - ri    -   a        gra   -  ti - a     ple -   na       Do  -   mi-nus" D4 D2 D2 | %6
 F4 F4 | E4 E2 E2 | G4 G4 | B4 B2 B2 | %10
"^te         -          cum.                                    Be- ne   -  di    -    cta             tu    in   mu- li  -    e     -   ri     -      bus   et   be - ne  -  di -ctus fru-ctus" A8 | %11
 G8- | G4 z4 | D2 D2 D2 D2 | F2 F2 F2 F2 | E4 E4 | G2 G2 G2 G2 | F2 F2 F2 F2 | %18
"^ven- tris   tu  -  i       Je             -                sus.                        San  -   cta   Ma  -  ri    -    a           ma  -     ter         De   -    i             o    -    ra  pro" G4 =E4 | %19
 F4 F4 | _E4 E4 | D4 D2 D2 | F4 F4 | E4 E4 | G4 G4 | B4 B2 B2 | %26
"^no - bis  pec- ca    -   to   -    ri     -          bus                        nunc      et    in       ho - ra   mor-tis        no  -  strae.             A          -         men." B2 B2 G2 F2 | %27
 =E4 E4 | D8 | _E4 E2 E2 | =E2 E2 ^C2 C2 | z4 D2 D2 | C8 | D8 |] %34
V:3
 z8 | z8 | z8 | z8 | z8 | %5
"^A   -  ve Ma - ri    -   a         gra  -  ti  - a    ple -   na       Do  -   mi-nus" B8 | %6
 d6 d2 | c8 | e8 | f2 f2 f4 | %10
"^te         -         cum.                                                     Be- ne - di- cta      tu    in   mu - li  -    e     -   ri     -      bus   et   be - ne  -  di -ctus fru-ctus" ^f8 | %11
 g2 b2 a2 g2 | f2 e2 d2 c2 | B4 B4 | d2 d2 d2 d2 | c4 c4 | e4 e4 | d4 d4 | %18
"^ven   -     tris            tu         -  i                 Je     -    sus.          San  -   cta   Ma  -  ri    -    a           ma  -     ter         De   -    i             o    -    ra  pro" =e4 c4 | %19
 f2 f2 _e2 d2 | e2 e2 d2 c2 | B4 B2 B2 | d4 d4 | c4 c4 | e4 e4 | f4 f2 f2 | %26
"^no - bis  pec- ca    -   to   -    ri     -          bus                        nunc      et    in       ho - ra   mor-tis                  no-strae.      A         -          men." g2 f2 e2 d2 | %27
 ^c8 | (d2 e2) (d2 =c2) | B4 B2 c2 | ^c4 =e4 | _e2 d2 c2 B2 | (B4 A4) | B8 |] %34
V:4
 z4 B2 c2 | d4 c2 B2 | A4 G2 A2 | B8 | [Ac]8 | %5
"^A        -         ve          Ma -  ri         -           a                gra- ti -  a" [DB]8 | %6
 [FA]8 | [Ec]8 | [GB]8 | [Bd]8 |"^ple      -           na   Do - mi-nus" c4 A4 | [GB]8- | %12
"^te  cum. Be- ne   -  di    -    cta             tu    in   mu-  li  -    e     -   ri     -      bus         et             be    -     ne   -" [GB]4 B2 c2 | %13
 d4 c2 B2 | A4 A2 B2 | c4 B2 A2 | G4 G2 A2 | B4 A2 B2 | %18
"^di     -     ctus          fru-ctus" c2 B2 A2 G2 | %19
"^ven- tris        tu  -  i     Je - sus.   San  -   cta   Ma  -  ri    -    a           ma  -     ter         De   -    i             o    -    ra  pro" (F8 | %20
 F8) | [DB]8 | [FA]8 | [Ec]8 | [GB]8 | [Bd]8 | %26
"^no - bis  pec- ca    -   to          -               ri     -    bus            nunc      et    in       ho     -     ra            mor-tis no-strae.       A         -          men." e2 d2 c2 B2 | %27
 B4 A2 G2 | ^F8 | G4 G2 A2 | B4 A2 G2 | F8- | F8 | [DF]8 |] %34
V:5
"^legato" z8 | B,8 | D8 | x8 | z2 C2 D2 x2 | B,8 | D8 | C8 | E8 | F8 | ^F8 | G2 B2 A2 G2 | %12
 F2 E2 D2 C2 | B,8 | D8 | C8 | E8 | D8 | =E4 C4 | F2 F2 _E2 D2 | E2 E2 D2 C2 | B,8 | D8 | C8 | E8 | %25
 F8 | G2 F2 E2 D2 | ^C8 | D2 E2 D2 =C2 | B,4 B,2 C2 | ^C8 | _E2 D2 C2 B,2 | B,4 A,4 | B,8 |] %34
V:6
 x8 | F8- | F8 | E4 F2 G2 | x6 E2 | x8 | x8 | x8 | x8 | x8 | A8 | x8 | x8 | D8 | F8 | E8 | G4 G4 | %17
 F8 | G4 =E4 | x8 | _E8 | x8 | x8 | x8 | x8 | x8 | B4 G2 F2 | =E8 | D8 | _E8 | =E8 | z4 D4 | C8 | %33
 x8 |] %34
V:7
 x8 | x8 | x8 | C8 | F,8 | x8 | x8 | x8 | x8 | x8 | x8 | x8 | x8 | x8 | x8 | x8 | x8 | x8 | x8 | %19
 x8 | x8 | x8 | x8 | x8 | x8 | x8 | x8 | x8 | x8 | x8 | x8 | x8 | F,8 | B,,8 |] %34

